www/assets/icons/keep_off.svg

<svg width="24" height="24" viewBox="0 0 24 24" xmlns="http://www.w3.org/2000/svg" fill='currentColor'><mask id="mask0_32484_496" style="mask-type:alpha" maskUnits="userSpaceOnUse" x="0" y="0" width="24" height="24"><rect width="24" height="24"/></mask><g mask="url(#mask0_32484_496)"><path d="M17 3.00005V5.00005H16V13.175L7.00002 4.17505V3.00005H17ZM12 23L11 22V16H6.00002V14L8.00002 12V10.85L1.40002 4.20005L2.80002 2.80005L21.2 21.2L19.75 22.6L13.15 16H13V22L12 23Z"/></g></svg>

<svg xmlns="http://www.w3.org/2000/svg" width="24" height="24" viewBox="0 0 24 24" fill='currentColor'><mask id="a" width="24" height="24" x="0" y="0" maskUnits="userSpaceOnUse" style="mask-type:alpha"><path d="M0 0h24v24H0z"/></mask><g mask="url(#a)"><path d="M17 3v2h-1v8.175l-9-9V3zm-5 20-1-1v-6H6v-2l2-2v-1.15L1.4 4.2l1.4-1.4 18.4 18.4-1.45 1.4-6.6-6.6H13v6z"/></g></svg>
